X:34
T: ES BLIES EIN JAEGER WOL IN SEIN HORN
N: E0019
O: Europa, Mitteleuropa, Deutschland
R: Sage, Maerchen -, Zauber - Lied
M: 6/8
L: 1/16
K: Bb
F2 | B4B2B3AG2 | F4F2F4
f2 | d6c6 | B6z4
F2 | B4B2B3AG2 | F4F2F4
f2 | d6c6 | B6z6
f2d2d2f2 | e2c2c2
F2 | Bcdef2B2 | d4c4 | B4z2

